X:578
T:Eagle's Whistle, The
B:Joyce, "Old Irish Folk Music & Songs"
Z:Nigel Gatherer
L:1/16
M:2/4
K:G
G | B2 B2 dBAG  | B2 B2 dBAG  | B2 A2 A2 BG | B2 A2 A2 BG |
    B2 B2 dBAG  | B2 B2 dBAG  | E2 G2 G3  A | E2 G2 G3   :|
d | edef  e2 dB | dBdg  d2 BA | d2 g2 dBAG  | B2 A2 A2 BG |
    edef  e2 dB | dBdg  d2 BA | B2 ge dBAG  | E2 GG G3   |]
<end>
<start>
